src/components/00-materials/images-raw/Symbol Euro.svg

<svg width="96" height="96" viewBox="0 0 96 96" fill="none" xmlns="http://www.w3.org/2000/svg">
<path d="M61.36 65C60.195 66.2932 58.7821 67.3393 57.2052 68.0762C55.6283 68.8132 53.9194 69.2259 52.18 69.29C46.1 69.29 40.7 64.18 38.18 56.98H52C52.7956 56.98 53.5587 56.6639 54.1213 56.1013C54.6839 55.5387 55 54.7756 55 53.98C55 53.1844 54.6839 52.4213 54.1213 51.8587C53.5587 51.2961 52.7956 50.98 52 50.98H36.83C36.6166 48.9857 36.6166 46.9743 36.83 44.98H52C52.7956 44.98 53.5587 44.6639 54.1213 44.1013C54.6839 43.5387 55 42.7756 55 41.98C55 41.1844 54.6839 40.4213 54.1213 39.8587C53.5587 39.2961 52.7956 38.98 52 38.98H38.18C40.7 31.78 46.1 26.67 52.18 26.67C53.9223 26.7392 55.633 27.1582 57.21 27.9021C58.7871 28.6459 60.1984 29.6995 61.36 31C62.2852 31.9387 63.5373 32.4835 64.8548 32.5208C66.1723 32.5581 67.4532 32.0849 68.43 31.2C68.9061 30.7727 69.2906 30.2533 69.5602 29.6732C69.8297 29.0931 69.9789 28.4643 69.9985 27.8249C70.0181 27.1855 69.9079 26.5488 69.6744 25.9532C69.4409 25.3577 69.089 24.8157 68.64 24.36C66.5336 22.0878 63.9898 20.2646 61.1613 18.9998C58.3328 17.7351 55.2779 17.0549 52.18 17C40.69 17 31 26.28 27.77 39H24C23.2044 39 22.4413 39.3161 21.8787 39.8787C21.3161 40.4413 21 41.2044 21 42C21 42.7956 21.3161 43.5587 21.8787 44.1213C22.4413 44.6839 23.2044 45 24 45H26.79C26.71 45.9867 26.67 46.9867 26.67 48C26.67 49.0133 26.71 50.0133 26.79 51H24C23.2044 51 22.4413 51.3161 21.8787 51.8787C21.3161 52.4413 21 53.2044 21 54C21 54.7956 21.3161 55.5587 21.8787 56.1213C22.4413 56.6839 23.2044 57 24 57H27.77C31 69.72 40.69 79 52.18 79C55.2765 78.9477 58.3305 78.2706 61.1589 77.0094C63.9873 75.7481 66.5319 73.9286 68.64 71.66C69.089 71.2043 69.4409 70.6623 69.6744 70.0668C69.9079 69.4712 70.0181 68.8345 69.9985 68.1951C69.9789 67.5557 69.8297 66.9269 69.5602 66.3468C69.2906 65.7667 68.9061 65.2473 68.43 64.82C67.4546 63.9349 66.1756 63.4596 64.8589 63.4932C63.5422 63.5267 62.2891 64.0664 61.36 65V65Z" stroke="#00008F" stroke-width="2" stroke-miterlimit="10"/>
</svg>

<svg width="96" height="96" viewBox="0 0 96 96" fill="none" xmlns="http://www.w3.org/2000/svg"><path d="M61.36 65a13 13 0 01-9.18 4.29c-6.08 0-11.48-5.11-14-12.31H52a3 3 0 000-6H36.83a28.196 28.196 0 010-6H52a3 3 0 000-6H38.18c2.52-7.2 7.92-12.31 14-12.31A13 13 0 0161.36 31a5.11 5.11 0 007.07.2 4.73 4.73 0 00.21-6.84A23 23 0 0052.18 17C40.69 17 31 26.28 27.77 39H24a3 3 0 000 6h2.79a37.11 37.11 0 00-.12 3c0 1.013.04 2.013.12 3H24a3 3 0 000 6h3.77C31 69.72 40.69 79 52.18 79a23.001 23.001 0 0016.46-7.34 4.73 4.73 0 00-.21-6.84 5.12 5.12 0 00-7.07.18v0z" stroke="#00008F" stroke-width="2" stroke-miterlimit="10"/></svg>
